X: 11422
T: Easter Snow
R: slip jig
M: 9/8
K: Gmajor
|:{f}g2f{d} e3 d2e/f/|g2(3e/d/B/ d2e G3|{A}G2A/B/ c2 B~B2c|d2B/G/ A2B {F}GGG:|
d2e/f/ g2a b2a|g3 g2a b2a|g2e g3 g2a|b2a g2e g3|g2e/B/ d2e G3|
{d}g2f/d/ e3 d2e/f/|g2e/B/ d2e G3|G2A/B/ c2B/A/ B2c|d2B/G/ A2B {F}~G3||

